svg/Pictogram/pictograms-nps-water-diving.svg

<svg xmlns="http://www.w3.org/2000/svg" viewBox="0 0 256 256"><path d="m0 0c-.541 0-.981-.44-.981-.981v-7.522c0-.541.44-.981.981-.981h7.521c.54 0 .979.44.979.981v7.522c0 .541-.439.981-.979.981h-7.521" fill="#fff" transform="matrix(25.89783 0 0-25.89783 30.598 5.193)"/><path d="m0 0c.652 0 1.18.529 1.18 1.182v7.521c0 .652-.528 1.182-1.18 1.182h-7.521c-.652 0-1.181-.53-1.181-1.182v-7.521c0-.653.529-1.182 1.181-1.182h7.521" transform="matrix(25.89783 0 0-25.89783 225.36 256)"/><g fill="#fff"><path d="m0 0c-.172 0-.336.039-.482.105-.151.071-.321.112-.498.112-.178 0-.346-.041-.499-.112-.146-.066-.31-.105-.482-.105-.172 0-.336.039-.482.105-.153.071-.321.112-.498.112-.178 0-.348-.041-.498-.112-.147-.066-.311-.105-.483-.105-.172 0-.336.039-.484.105-.151.071-.321.112-.496.112-.178 0-.348-.041-.498-.112-.147-.066-.311-.105-.482-.105-.172 0-.336.039-.484.105-.151.071-.321.112-.496.112-.178 0-.348-.041-.498-.112-.147-.066-.313-.105-.485-.105v.725c.172 0 .338.039.485.105.15.068.32.109.498.109.175 0 .345-.041.496-.109.148-.066.312-.105.484-.105.171 0 .335.039.482.105.15.068.32.109.498.109.175 0 .345-.041.496-.109.148-.066.312-.105.484-.105.172 0 .336.039.483.105.15.068.32.109.498.109.177 0 .345-.041.498-.109.146-.066.31-.105.482-.105.172 0 .336.039.482.105.153.068.321.109.499.109.177 0 .347-.041.498-.109.146-.066.31-.105.482-.105v-.725" transform="matrix(25.89783 0 0-25.89783 230.17 233.14)"/><path d="m0 0c.365 0 .662.297.662.662 0 .365-.297.66-.662.66-.364 0-.661-.295-.661-.66 0-.365.297-.662.661-.662" transform="matrix(25.89783 0 0-25.89783 84.49 141.13)"/><path d="m0 0c-.104-.178-.332-.238-.509-.133-.178.104-.238.332-.135.51l1.535 2.643c.056.099.138.181.236.236l1.973 1.195 1.339 2.281c.127.223.411.299.633.172.221-.129.297-.412.17-.633l-1.605-2.732c-.055-.1-.137-.182-.237-.236l-2.328-1.448-1.072-1.855" transform="matrix(25.89783 0 0-25.89783 86.92 200.41)"/></g></svg>

<?xml version="1.0" encoding="UTF-8" standalone="no"?>
<!-- Created with Inkscape (http://www.inkscape.org/) -->
<svg
   xmlns:dc="http://purl.org/dc/elements/1.1/"
   xmlns:cc="http://creativecommons.org/ns#"
   xmlns:rdf="http://www.w3.org/1999/02/22-rdf-syntax-ns#"
   xmlns:svg="http://www.w3.org/2000/svg"
   xmlns="http://www.w3.org/2000/svg"
   xmlns:sodipodi="http://sodipodi.sourceforge.net/DTD/sodipodi-0.dtd"
   xmlns:inkscape="http://www.inkscape.org/namespaces/inkscape"
   width="256"
   height="256"
   id="svg5294"
   sodipodi:version="0.32"
   inkscape:version="0.46"
   version="1.0"
   sodipodi:docname="pictograms-nps-water-diving-2.svg"
   inkscape:output_extension="org.inkscape.output.svg.inkscape">
  <defs
     id="defs5296">
    <inkscape:perspective
       sodipodi:type="inkscape:persp3d"
       inkscape:vp_x="0 : 526.18109 : 1"
       inkscape:vp_y="0 : 1000 : 0"
       inkscape:vp_z="744.09448 : 526.18109 : 1"
       inkscape:persp3d-origin="372.04724 : 350.78739 : 1"
       id="perspective5302" />
  </defs>
  <sodipodi:namedview
     id="base"
     pagecolor="#ffffff"
     bordercolor="#666666"
     borderopacity="1.0"
     gridtolerance="10000"
     guidetolerance="10"
     objecttolerance="10"
     inkscape:pageopacity="0.0"
     inkscape:pageshadow="2"
     inkscape:zoom="1.4"
     inkscape:cx="77.203796"
     inkscape:cy="91.428572"
     inkscape:document-units="px"
     inkscape:current-layer="layer1"
     showgrid="false"
     inkscape:window-width="747"
     inkscape:window-height="674"
     inkscape:window-x="0"
     inkscape:window-y="309" />
  <metadata
     id="metadata5299">
    <rdf:RDF>
      <cc:Work
         rdf:about="">
        <dc:format>image/svg+xml</dc:format>
        <dc:type
           rdf:resource="http://purl.org/dc/dcmitype/StillImage" />
      </cc:Work>
    </rdf:RDF>
  </metadata>
  <g
     inkscape:label="Layer 1"
     inkscape:groupmode="layer"
     id="layer1">
    <g
       id="g6370"
       transform="matrix(25.897825,0,0,-25.897825,30.598301,5.1928247)">
      <path
         d="M 0,0 C -0.541,0 -0.981,-0.44 -0.981,-0.981 L -0.981,-8.503 C -0.981,-9.044 -0.541,-9.484 0,-9.484 L 7.521,-9.484 C 8.061,-9.484 8.5,-9.044 8.5,-8.503 L 8.5,-0.981 C 8.5,-0.44 8.061,0 7.521,0 L 0,0 z"
         style="fill:#ffffff;fill-opacity:1;fill-rule:nonzero;stroke:none"
         id="path6372" />
    </g>
    <g
       id="g6374"
       transform="matrix(25.897825,0,0,-25.897825,225.36287,256)">
      <path
         d="M 0,0 C 0.652,0 1.18,0.529 1.18,1.182 L 1.18,8.703 C 1.18,9.355 0.652,9.885 0,9.885 L -7.521,9.885 C -8.173,9.885 -8.702,9.355 -8.702,8.703 L -8.702,1.182 C -8.702,0.529 -8.173,0 -7.521,0 L 0,0 z"
         style="fill:#000000;fill-opacity:1;fill-rule:nonzero;stroke:none"
         id="path6376" />
    </g>
    <g
       id="g6378"
       transform="matrix(25.897825,0,0,-25.897825,230.16972,233.13761)">
      <path
         d="M 0,0 C -0.172,0 -0.336,0.039 -0.482,0.105 C -0.633,0.176 -0.803,0.217 -0.98,0.217 C -1.158,0.217 -1.326,0.176 -1.479,0.105 C -1.625,0.039 -1.789,0 -1.961,0 C -2.133,0 -2.297,0.039 -2.443,0.105 C -2.596,0.176 -2.764,0.217 -2.941,0.217 C -3.119,0.217 -3.289,0.176 -3.439,0.105 C -3.586,0.039 -3.75,0 -3.922,0 C -4.094,0 -4.258,0.039 -4.406,0.105 C -4.557,0.176 -4.727,0.217 -4.902,0.217 C -5.08,0.217 -5.25,0.176 -5.4,0.105 C -5.547,0.039 -5.711,0 -5.882,0 C -6.054,0 -6.218,0.039 -6.366,0.105 C -6.517,0.176 -6.687,0.217 -6.862,0.217 C -7.04,0.217 -7.21,0.176 -7.36,0.105 C -7.507,0.039 -7.673,0 -7.845,0 L -7.845,0.725 C -7.673,0.725 -7.507,0.764 -7.36,0.83 C -7.21,0.898 -7.04,0.939 -6.862,0.939 C -6.687,0.939 -6.517,0.898 -6.366,0.83 C -6.218,0.764 -6.054,0.725 -5.882,0.725 C -5.711,0.725 -5.547,0.764 -5.4,0.83 C -5.25,0.898 -5.08,0.939 -4.902,0.939 C -4.727,0.939 -4.557,0.898 -4.406,0.83 C -4.258,0.764 -4.094,0.725 -3.922,0.725 C -3.75,0.725 -3.586,0.764 -3.439,0.83 C -3.289,0.898 -3.119,0.939 -2.941,0.939 C -2.764,0.939 -2.596,0.898 -2.443,0.83 C -2.297,0.764 -2.133,0.725 -1.961,0.725 C -1.789,0.725 -1.625,0.764 -1.479,0.83 C -1.326,0.898 -1.158,0.939 -0.98,0.939 C -0.803,0.939 -0.633,0.898 -0.482,0.83 C -0.336,0.764 -0.172,0.725 0,0.725 L 0,0 z"
         style="fill:#ffffff;fill-opacity:1;fill-rule:nonzero;stroke:none"
         id="path6380" />
    </g>
    <g
       id="g6382"
       transform="matrix(25.897825,0,0,-25.897825,84.494368,141.1303)">
      <path
         d="M 0,0 C 0.365,0 0.662,0.297 0.662,0.662 C 0.662,1.027 0.365,1.322 0,1.322 C -0.364,1.322 -0.661,1.027 -0.661,0.662 C -0.661,0.297 -0.364,0 0,0"
         style="fill:#ffffff;fill-opacity:1;fill-rule:nonzero;stroke:none"
         id="path6384" />
    </g>
    <g
       id="g6386"
       transform="matrix(25.897825,0,0,-25.897825,86.921305,200.41042)">
      <path
         d="M 0,0 C -0.104,-0.178 -0.332,-0.238 -0.509,-0.133 C -0.687,-0.029 -0.747,0.199 -0.644,0.377 L 0.891,3.02 C 0.947,3.119 1.029,3.201 1.127,3.256 L 3.1,4.451 L 4.439,6.732 C 4.566,6.955 4.85,7.031 5.072,6.904 C 5.293,6.775 5.369,6.492 5.242,6.271 L 3.637,3.539 C 3.582,3.439 3.5,3.357 3.4,3.303 L 1.072,1.855 L 0,0 z"
         style="fill:#ffffff;fill-opacity:1;fill-rule:nonzero;stroke:none"
         id="path6388" />
    </g>
  </g>
</svg>
